src/assets/filled/ArrangeCircle2.svg

<?xml version="1.0" encoding="UTF-8"?>
<svg width="24" height="24" viewBox="0 0 24 24" xmlns="http://www.w3.org/2000/svg">
 <path d="m12 2c-5.52 0-10 4.48-10 10s4.48 10 10 10 10-4.48 10-10-4.48-10-10-10zm5.85 12.1c-0.04 0.09-0.09 0.17-0.16 0.24l-3.04 3.04c-0.15 0.15-0.34 0.22-0.53 0.22s-0.38-0.07-0.53-0.22c-0.29-0.29-0.29-0.77 0-1.06l1.76-1.76h-8.5c-0.41 0-0.75-0.34-0.75-0.75s0.34-0.75 0.75-0.75h10.31c0.1 0 0.19 0.02 0.29 0.06 0.18 0.08 0.33 0.22 0.41 0.41 0.06 0.18 0.06 0.39-0.01 0.57zm-0.7-3.17h-10.3c-0.1 0-0.2-0.02-0.29-0.06-0.18-0.08-0.33-0.22-0.41-0.41-0.08-0.18-0.08-0.39 0-0.57 0.04-0.09 0.09-0.17 0.16-0.24l3.04-3.04c0.29-0.29 0.77-0.29 1.06 0s0.29 0.77 0 1.06l-1.75 1.76h8.5c0.41 0 0.75 0.34 0.75 0.75s-0.34 0.75-0.76 0.75z"/>
</svg>

<svg width="24" height="24" viewBox="0 0 24 24"  xmlns="http://www.w3.org/2000/svg">
<path d="M12 2C6.48 2 2 6.48 2 12C2 17.52 6.48 22 12 22C17.52 22 22 17.52 22 12C22 6.48 17.52 2 12 2ZM17.85 14.1C17.81 14.19 17.76 14.27 17.69 14.34L14.65 17.38C14.5 17.53 14.31 17.6 14.12 17.6C13.93 17.6 13.74 17.53 13.59 17.38C13.3 17.09 13.3 16.61 13.59 16.32L15.35 14.56H6.85C6.44 14.56 6.1 14.22 6.1 13.81C6.1 13.4 6.44 13.06 6.85 13.06H17.16C17.26 13.06 17.35 13.08 17.45 13.12C17.63 13.2 17.78 13.34 17.86 13.53C17.92 13.71 17.92 13.92 17.85 14.1ZM17.15 10.93H6.85C6.75 10.93 6.65 10.91 6.56 10.87C6.38 10.79 6.23 10.65 6.15 10.46C6.07 10.28 6.07 10.07 6.15 9.89C6.19 9.8 6.24 9.72 6.31 9.65L9.35 6.61C9.64 6.32 10.12 6.32 10.41 6.61C10.7 6.9 10.7 7.38 10.41 7.67L8.66 9.43H17.16C17.57 9.43 17.91 9.77 17.91 10.18C17.91 10.59 17.57 10.93 17.15 10.93Z" />
</svg>
